images/social/uich-2x.svg

<?xml version="1.0" encoding="UTF-8"?>
<svg width="30px" height="30px" viewBox="0 0 30 30" version="1.1" xmlns="http://www.w3.org/2000/svg" xmlns:xlink="http://www.w3.org/1999/xlink">
    <!-- Generator: Sketch 53.1 (72631) - https://sketchapp.com -->
    <title>投资组合/uich@2x</title>
    <desc>Created with Sketch.</desc>
    <g id="投资组合/uich" stroke="none" stroke-width="1" fill="none" fill-rule="evenodd">
        <g id="ui" transform="translate(10.000000, 11.500000)" fill="#FFFFFF">
            <path d="M6.48650925,3.43004527 C6.48650925,5.06180216 5.13162198,6.38465582 3.46021501,6.38465582 C1.78893156,6.38465582 0.434044291,5.06180216 0.434044291,3.43004527 L0.434044291,1.17485394 C0.434044291,0.788517423 0.754810629,0.475223476 1.15067263,0.475223476 C1.5464574,0.475223476 1.86722374,0.788366541 1.86722374,1.17485394 L1.86722374,3.42983403 C1.86722374,4.2887821 2.58047023,4.98518367 3.46021501,4.98518367 C4.34002155,4.98518367 5.05328347,4.2887972 5.05328347,3.42983403 L5.05328347,1.17485394 C5.05328347,0.788517423 5.37417336,0.475223476 5.76983459,0.475223476 C6.1655576,0.475223476 6.4863085,0.788366541 6.4863085,1.17485394 L6.4863085,3.43003018 L6.48650925,3.43003018 L6.48650925,3.43004527 Z" id="Path"></path>
            <path d="M9.56595571,5.6849801 C9.56595571,6.07134679 9.24526657,6.38464074 8.8494818,6.38464074 C8.45366614,6.38464074 8.1327917,6.07134679 8.1327917,5.6849801 L8.1327917,1.17485394 C8.1327917,0.788517423 8.45366613,0.475223476 8.8494818,0.475223476 C9.24528201,0.475223476 9.56595571,0.788366541 9.56595571,1.17485394 L9.56595571,5.6849801 Z" id="Path"></path>
        </g>
        <path d="M14.9999422,23.6228211 C14.5602855,23.6228211 14.145144,23.5232858 13.8309907,23.3426092 L8.1689708,20.0857651 C7.85479823,19.9050117 7.56071159,19.5965559 7.34088321,19.2171927 C7.12105485,18.8378294 7,18.4298383 7,18.0683699 L7.00000002,11.554528 C7.00000002,11.193002 7.12105487,10.7849725 7.34088323,10.4056093 C7.56071159,10.0262461 7.85479823,9.71780944 8.16897081,9.53713287 L13.8309907,6.2802503 C14.145144,6.09953532 14.5602855,6 14.9999422,6 C15.4396182,6 15.8547597,6.09953532 16.1688552,6.28026951 L21.8311448,9.53713287 C22.1452981,9.71780944 22.4393462,10.0262461 22.659136,10.4056093 C22.8789451,10.7849725 23,11.193002 23,11.5545088 L23,18.0681587 C23,18.4296655 22.8789451,18.837695 22.6591168,19.2170775 C22.4393077,19.5964215 22.1452018,19.9049157 21.83101,20.0857267 L16.168836,23.3426092 C15.8547405,23.523305 15.4396182,23.6228211 14.9999422,23.6228211 L14.9999422,23.6228211 Z" id="Path" stroke="#FFFFFF" stroke-width="1.4"></path>
    </g>
</svg>

<svg height="30" viewBox="0 0 30 30" width="30" xmlns="http://www.w3.org/2000/svg"><g fill="none" fill-rule="evenodd"><g fill="#fff" transform="translate(10 11.5)"><path d="m6.48650925 3.43004527c0 1.63175689-1.35488727 2.95461055-3.02629424 2.95461055-1.67128345 0-3.02617072-1.32285366-3.02617072-2.95461055v-2.25519133c0-.38633652.32076634-.69963046.71662834-.69963046.39578477 0 .71655111.31314306.71655111.69963046v2.25498009c0 .85894807.71324649 1.55534964 1.59299127 1.55534964.87980654 0 1.59306846-.69638647 1.59306846-1.55534964v-2.25498009c0-.38633652.32088989-.69963046.71655112-.69963046.39572301 0 .71647391.31314306.71647391.69963046v2.25517624h.00020075z"/><path d="m9.56595571 5.6849801c0 .38636669-.32068914.69966064-.71647391.69966064-.39581566 0-.7166901-.31329395-.7166901-.69966064v-4.51012616c0-.38633652.32087443-.69963046.7166901-.69963046.39580021 0 .71647391.31314306.71647391.69963046z"/></g><path d="m14.9999422 23.6228211c-.4396567 0-.8547982-.0995353-1.1689515-.2802119l-5.6620199-3.2568441c-.31417257-.1807534-.60825921-.4892092-.82808759-.8685724-.21982836-.3793633-.34088321-.7873544-.34088321-1.1488228l.00000002-6.5138419c0-.361526.12105485-.7695555.34088321-1.1489187s.513915-.68779986.82808758-.86847643l5.66201989-3.25688257c.3141533-.18071498.7292948-.2802503 1.1689515-.2802503.439676 0 .8548175.09953532 1.168913.28026951l5.6622896 3.25686336c.3141533.18067657.6082014.48911323.8279912.86847643.2198091.3793632.340864.7873927.340864 1.1488995v6.5136499c0 .3615068-.1210549.7695363-.3408832 1.1489188-.2198091.379344-.513915.6878382-.8281068.8686492l-5.662174 3.2568825c-.3140955.1806958-.7292178.2802119-1.1688938.2802119z" stroke="#fff" stroke-width="1.4"/></g></svg>
